X:67
T:Knock A Man Down
M:6/8
L:1/8
Q:1/4=120
K:E
BcB G3|BcB G3|B3 c3|AGA F3|
A>GA F2F|AAB c2c|BBB B2A GFG E3||
